Frontend/src/assets/icono_bancos/pix_icon_198027.svg

<svg xmlns="http://www.w3.org/2000/svg" viewBox="0 0 512 512"><!--! Font Awesome Free 6.0.0-beta2 by @fontawesome - https://fontawesome.com License - https://fontawesome.com/license/free (Icons: CC BY 4.0, Fonts: SIL OFL 1.1, Code: MIT License)--><path d="M242.4 292.5c5.4-5.4 14.7-5.4 20.1 0l77 77c14.2 14.2 33.1 22 53.1 22h15.1l-97.1 97.1c-30.3 29.5-79.5 29.5-109.8 0l-97.5-97.4h9.3c20 0 38.9-7.8 53.1-22l76.7-76.7zm20.1-73.6c-6.4 5.5-14.6 5.6-20.1 0l-76.7-76.7c-14.2-15.1-33.1-22-53.1-22h-9.3l97.4-97.44c30.4-30.346 79.6-30.346 109.9 0l97.2 97.14h-15.2c-20 0-38.9 7.8-53.1 22l-77 77zm-149.9-76.2c13.8 0 26.5 5.6 37.1 15.4l76.7 76.7c7.2 6.3 16.6 10.8 26.1 10.8 9.4 0 18.8-4.5 26-10.8l77-77c9.8-9.7 23.3-15.3 37.1-15.3h37.7l58.3 58.3c30.3 30.3 30.3 79.5 0 109.8l-58.3 58.3h-37.7c-13.8 0-27.3-5.6-37.1-15.4l-77-77c-13.9-13.9-38.2-13.9-52.1.1l-76.7 76.6c-10.6 9.8-23.3 15.4-37.1 15.4H80.78l-58.02-58c-30.346-30.3-30.346-79.5 0-109.8l58.02-58.1h31.82z"/></svg>

<svg xmlns="http://www.w3.org/2000/svg" viewBox="0 0 512 512"><!--! Font Awesome Free 6.0.0-beta2 by @fontawesome - https://fontawesome.com License - https://fontawesome.com/license/free (Icons: CC BY 4.0, Fonts: SIL OFL 1.1, Code: MIT License) --><path d="M242.4 292.5C247.8 287.1 257.1 287.1 262.5 292.5L339.5 369.5C353.7 383.7 372.6 391.5 392.6 391.5H407.7L310.6 488.6C280.3 518.1 231.1 518.1 200.8 488.6L103.3 391.2H112.6C132.6 391.2 151.5 383.4 165.7 369.2L242.4 292.5zM262.5 218.9C256.1 224.4 247.9 224.5 242.4 218.9L165.7 142.2C151.5 127.1 132.6 120.2 112.6 120.2H103.3L200.7 22.76C231.1-7.586 280.3-7.586 310.6 22.76L407.8 119.9H392.6C372.6 119.9 353.7 127.7 339.5 141.9L262.5 218.9zM112.6 142.7C126.4 142.7 139.1 148.3 149.7 158.1L226.4 234.8C233.6 241.1 243 245.6 252.5 245.6C261.9 245.6 271.3 241.1 278.5 234.8L355.5 157.8C365.3 148.1 378.8 142.5 392.6 142.5H430.3L488.6 200.8C518.9 231.1 518.9 280.3 488.6 310.6L430.3 368.9H392.6C378.8 368.9 365.3 363.3 355.5 353.5L278.5 276.5C264.6 262.6 240.3 262.6 226.4 276.6L149.7 353.2C139.1 363 126.4 368.6 112.6 368.6H80.78L22.76 310.6C-7.586 280.3-7.586 231.1 22.76 200.8L80.78 142.7H112.6z"/></svg>
